X:657
T:Mr. Campbell Craignish
R:Reel
B:The Athole Collection
M:C|
L:1/8
K:F
B|A/B/c cB Acfc|A/B/c cA BGGB|A/B/c cB Acfd|cABG F/F/F F:|
c|fcfa fcfa|cfaf egga|1 fcfa cfag|fdcA F/F/F F:|2 fgag ~fcdf|cABG F/F/F ~F2||

